!!!!SEGMENT: pl-wtm--r-2007--003_smietanski-emil-wladyslaw--sonate-op-2-scherzo.krn
!!!id: 18xx:1992
!!!COM: Śmietański, Emil Władysław
!!!COM-rism: pe50041781
!!!CDT: 1845-1886
!!!CNT: Polish
!!!OTL: Sonate op. 2 – Scherzo
!!!PDT: 1865
!!!SMS-siglum: PL-Wtm
!!!SMS-shelfmark: R 2007
!!!NIFC-rismID: 1001112887
!!!URL-scan: http://repozytorium.nifc.pl/skany/pl-wtm-nut--r2007
!!!ONB-nifc: UWAGA: części Sonaty: 1. Allegro assai, 2. Larghetto, 3. Scherzo, 4. Finale. Presto
!!!SMS-variant:
!!!SMS-altvar:
**kern	**kern	**kern	**dynam
*part3	*part2	*part1	*part1
*staff3	*staff2	*staff1	*
*	*I"Fortepian	*I"Skrzypce	*
*>[A,A,B,B,C,C1,C,C2,D,A,A,B,B]	*>[A,A,B,B,C,C1,C,C2,D,A,A,B,B]	*>[A,A,B,B,C,C1,C,C2,D,A,A,B,B]	*
*clefF4	*clefG2	*clefG2	*
*k[b-e-a-d-]	*k[b-e-a-d-]	*k[b-e-a-d-]	*
*M3/4	*M3/4	*M3/4	*
*all\right	*all\right	*all\right	*
*>A	*>A	*>A	*
4ryy	8a-\L	4r	.
.	8a-\J	.	.
*clefG2	*	*	*
=1	=1	=1	=1
!	!	!LO:TX:i:t=5	!
4f\	4a-\	2r	.
4en\	4r	.	.
4e-X\	4b-\ 4g\	4r	.
*clefF4	*	*	*
=2	=2	=2	=2
4A-\	4cc\ 4a-\	2r	.
4AA-\	4r	.	.
4r	8a-\L	4r	.
.	8a-\J	.	.
*clefG2	*	*	*
=3	=3	=3	=3
4f\	4a-\	2r	.
4en\	4r	.	.
4e-X\	4b-\ 4g\	4r	.
*clefF4	*	*	*
=4	=4	=4	=4
4A-\	4cc\ 4a-\	2r	.
4AA-\	4r	.	.
4r	8cc\L	4r	.
.	8cc\J	.	.
*clefG2	*	*	*
=5	=5	=5	=5
4a-\	4cc\	2r	.
4g\	4r	.	.
4f\	4ddn\ 4bn\	4r	.
=6	=6	=6	=6
4e-\	4ee-/ 4cc/	2r	.
4c\	4cc/	.	.
4A-\	4a-/	8ff'\L	.
.	.	8ff#'\J	.
*clefF4	*	*	*
=7	=7	=7	=7
*	*	*	*above
!	!	!	!LO:DY:t=f..
4G\	4g/	4gg'\	f
4GG\	4ee-/ 4cc/ 4g/	4ee-'\	.
4GGG\	4ddn/ 4bn/ 4f/	4ddn\	.
=8	=8	=8	=8
4CC\	4cc/ 4g/ 4e-/	4cc\	.
4CCC\	4r	4c\	.
=:|!|:	=:|!|:	=:|!|:	=:|!|:
*>B	*>B	*>B	*
8EE-\L 8EEE-\	8E-</L	8e-\L	.
8EE-\J 8EEE-\	8E-</J	8e-\J	ff
!LO:PB:g=original	!LO:PB:g=original	!	!
=9	=9	=9	=9
4EE-\ 4EEE-\	4E-</	4e-\	.
4FF\ 4FFF\	4F</	4f\	.
4GG\ 4GGG\	4G</	4g\	.
=10	=10	=10	=10
4AA-\ 4AAA-\	4A-</	4a-\	.
4r	4ryy	4r	.
!	!	!	!LO:DY:t=ppp.
8g>\L 8e->\	8ee-/L 8dd-/	8eee-\L	ppp
8g>\J 8e->\	8ee-/J 8dd-/	8eee-\J	.
=11	=11	=11	=11
4g>\ 4e->\	4ee-/ 4dd-/	4eee-'\	.
4a->\ 4e->\	4ff/ 4dd-/	4fff'\	.
4b->\ 4e->\	4gg/ 4dd-/	4ggg'\	.
=12	=12	=12	=12
4a->\ 4A->\	4aa-/ 4cc/	4aaa-'\	.
4ryy	4r	4r	.
!	!	!	!LO:DY:t=ff.
8CC\L 8CCC\	8C</L	8c\L	ff
8CC\J 8CCC\	8C</J	8c\J	.
!	!	!LO:LB:g=original	!
=13	=13	=13	=13
4CC\ 4CCC\	4C</	4c'\	.
4DDn\ 4EEEn\	4Dn</	4dn'\	.
4EEn\ 4FFFn\	4En</	4en'\	.
=14	=14	=14	=14
4FF\ 4FFF\	4F</	4f\	.
4r	4ryy	4r	.
8en>\L 8c>\	8cc/L 8b-/	8ccc\L	ppp
8e>\J 8c>\	8cc/J 8b-/	8ccc\J	.
=15	=15	=15	=15
4en>\ 4c>\	4cc/ 4b-/	4ccc\	.
4f>\ 4c>\	4ddn/ 4b-/	4dddn\	.
4g>\ 4c>\	4een/ 4b-/	4eeen\	.
=16	=16	=16	=16
4f\ 4F\	4ff\ 4a-\	4fff\	.
4r	4r	4r	.
4r	8aa-\L 8a-\	8fff\L	p
.	8aa-\J 8a-\	8fff\J	.
=17	=17	=17	=17
8A-\L	8aa-\L 8a-\	8fff\L	.
8B-\J	8aa-\J 8a-\	8fff\J	.
4c\	4gg-X\ 4g-X\	4eee-\	.
4AA-\	8gg-\L 8g-\	8eee-\L	.
.	8gg-\J 8g-\	8eee-\J	.
=18	=18	=18	=18
!	!	!	!LO:DY:rj
8D-\L	8gg-X\L 8g-X\	8eee-\L	p
8E-\J	8gg-\J 8g-\	8eee-\J	.
4F\	4ff\ 4f\	4ddd-\	.
4DD-\	8ff\L 8f\	8ddd-\L	.
.	8ff\J 8f\	8ddd-\J	.
!LO:LB:g=original	!LO:LB:g=original	!	!
=19	=19	=19	=19
8F\L	8ff\L 8f\	8ddd-\L	.
8G\J	8ff\J 8f\	8ddd-\J	.
4An\	4ee-\ 4e-\	4ccc\	.
4FF\	8ee-\L 8e-\	8ccc\L	.
.	8ee-\J 8e-\	8ccc\J	.
=20	=20	=20	=20
8BB-\L	8ee-\L 8e-\	8ccc\L	.
8C\J	8ee-\J 8e-\	8ccc\J	.
4D-\	4dd-\ 4d-\	4bb-\	.
4BBB-\	8dd-\L 8d-\	8bb-\L	.
.	8dd-\J 8d-\	8bb-\J	.
!	!	!LO:LB:g=original	!
=21	=21	=21	=21
8D-\L	8dd-\L 8d-\	8bb-^^\L	f
8E-\J	8dd-\J 8d-\	8bb-\J	.
4F\	4cc-X\ 4c-X\	4aa-\	.
*clefG2	*	*	*
!LO:N:vis=4	!	!	!
8f\ 8d-\	8dd-\L 8cc-\	4r	.
!LO:N:vis=4	!	!	!
8f\ 8d-\	8dd-\J 8cc-\	.	.
=22	=22	=22	=22
4g-X\ 4d-\	4ee-\ 4cc-X\	2r	.
4a-\ 4d-\	4ff\ 4cc-\	.	.
4g-\ 4G-X\	4gg-X\ 4b-\	4r	.
*clefF4	*	*	*
=23	=23	=23	=23
8C\L	8cc\L 8c\	8aa-^^\L	f
8Dn\J	8cc\J 8c\	8aa-\J	.
4En\	4b-\ 4B-\	4gg\	.
*clefG2	*	*	*
8en\L 8c\	8cc\L 8b-\	4r	.
8e\J 8c\	8cc\J 8b-\	.	.
=24	=24	=24	=24
4f\ 4c\	4ddn\ 4b-\	2r	.
4g\ 4c\	4een\ 4b-\	.	.
4f\ 4F\	4ff\ 4a-\	4r	.
*clefF4	*	*	*
=25	=25	=25	=25
8A-\L	8aa-\L 8a-\	8fff\L	p
8B-\J	8aa-\J 8a-\	8fff\J	.
4c\	4gg-X\ 4g-X\	4eee-\	.
4AA-\	8gg-\L 8g-\	8eee-\L	.
.	8gg-\J 8g-\	8eee-\J	.
=26	=26	=26	=26
8D-\L	8gg-X\L 8g-X\	8eee-\L	.
8E-\J	8gg-\J 8g-\	8eee-\J	.
4F\	4ff\ 4f\	4ddd-\	.
4DD-\	8ff\L 8f\	8ddd-\L	.
.	8ff\J 8f\	8ddd-\J	.
=27	=27	=27	=27
8F\L	8ee-\L 8e-\	8ddd-\L	.
8G\J	8ee-\J 8e-\	8ddd-\J	.
4An\	4ee-\ 4e-\	4ccc\	.
4FF\	8ee-\L 8e-\	8ccc\L	.
.	8ee-\J 8e-\	8ccc\J	.
!LO:LB:g=original	!LO:LB:g=original	!	!
=28	=28	=28	=28
8BB-\L	8ee-\L 8e-\	8ccc\L	.
8C\J	8ee-\J 8e-\	8ccc\J	.
4D-\	4dd-\ 4d-\	4bb-\	.
4BBB-\	8dd-\L 8d-\	8bb-\L	.
.	8dd-\J 8d-\	8bb-\J	.
=29	=29	=29	=29
8D-\L	8dd-\L 8d-\	8bb-\L	f
8E-\J	8dd-\J 8d-\	8bb-\J	.
4F\	4cc-X\ 4c-X\	4aa-\	.
*clefG2	*	*	*
8f\L 8d-\	8dd-\L 8cc-\	4r	.
8f\J 8d-\	8dd-\J 8cc-\	.	.
!	!	!LO:LB:g=original	!
=30	=30	=30	=30
4g-X\ 4d-\	4ee-\ 4cc-X\	2r	.
4a-\ 4d-\	4ff\ 4cc-\	.	.
4g-\ 4G-X\	4gg-X\ 4b-\	4r	.
*clefF4	*	*	*
=31	=31	=31	=31
8C\L	8cc\L 8cn\	8aa-\L	p
8Dn\J	8cc\J 8c\	8aa-\J	.
4En\	4b-\ 4B-\	4gg\	.
*clefG2	*	*	*
8en\L 8c\	8cc\L 8b-\	8ccc\L 8een\	<
8e\J 8c\	8cc\J 8b-\	8ccc\J 8ee\	.
=32	=32	=32	=32
4en\ 4c\	4cc\ 4b-\	4ccc\ 4een\	<
4e\ 4c\	4cc\ 4b-\	4ccc\ 4ee\	.
4e\ 4c\	4cc\ 4b-\	4ccc\ 4ee\	.
=33	=33	=33	=33
2.en\ 2.c\	2.cc\ 2.b-\	4ccc\ 4een\	.
.	.	4ccc\ 4ee\	.
.	.	4ccc\ 4ee\	.
=34	=34	=34	=34
2.en\ 2.c\	2.cc\ 2.b-\	(8ccc\L 8een\	.
.	.	8ccc\J 8ee\	.
!	!	!LO:TX:a:t=bis	!
.	.	8ccc\L 8ee\	.
.	.	8ccc\J 8ee\	.
.	.	8ccc\L 8ee\	.
.	.	8ccc\J 8ee\)	.
=35	=35	=35	=35
!	!	!LO:TX:t=P:problem:t. 35 - repetycja	!
4en\ 4c\	4cc\ 4b-\	8ccc\Lyy 8een\yy	.
.	.	8ccc\Jyy 8ee\yy	.
4e\ 4c\	4cc\ 4b-\	8ccc\Lyy 8ee\yy	.
.	.	8ccc\Jyy 8ee\yy	.
4e\ 4c\	4cc\ 4b-\	8ccc\Lyy 8ee\yy	.
.	.	8ccc\Jyy 8ee\yy	.
=36	=36	=36	=36
8en\ 8c\	8cc\ 8b-\	4ccc\ 4een\	[[ff
8r	8r	.	.
4r	4r	4r	[
4ryy	8a-\L	4r	.
.	8a-\J	.	.
=37	=37	=37	=37
!	!	!LO:TX:a:t=5	!
4f\	4a-\	2r	.
4en\	4r	.	.
4e-X\	4b-\ 4g\	4r	.
*clefF4	*	*	*
=38	=38	=38	=38
4A-\	4cc\ 4a-\	2r	.
4AA-\	4r	.	.
4r	8a-\L	4r	.
.	8a-\J	.	.
*clefG2	*	*	*
=39	=39	=39	=39
4f\	4a-\	2r	.
4en\	4r	.	.
4e-X\	4b-\ 4g\	4r	.
!LO:LB:g=original	!LO:LB:g=original	!	!
=40	=40	=40	=40
*clefF4	*	*	*
4A-\	4cc\ 4a-\	2r	.
4AA-\	4r	.	.
4r	8cc\L	4r	.
.	8cc\J	.	.
*clefG2	*	*	*
=41	=41	=41	=41
4a-\	4cc\	2r	.
4g\	4r	.	.
4f\	4ddn\ 4bn\	4r	.
=42	=42	=42	=42
4e-\	4ee-\ 4cc\	2r	.
4c\	4cc\	.	.
4A-\	4a-\	8ff\L	.
.	.	8ff#X\J	.
*clefF4	*	*	*
=43	=43	=43	=43
4G\	4g\	4gg\	f
4GG\	4ee-\ 4cc\ 4g\	4ee-\	.
!	!	!LO:SIC:v:s=4ddn	!
4GGG\	4ddn\ 4bn\ 4f\	4dd-\	.
=44	=44	=44	=44
4CC\	4cc\ 4g\ 4e-\	4cc\	.
4CCC\	4r	4r	.
4r	8aa-\L 8ff\ 8a-\	8a-\L	ff
!	!	!LO:TX:a:i:t=energico	!
.	8aa-\J 8ff\ 8a-\	8a-\J	.
!	!	!LO:PB:g=original	!
=45	=45	=45	=45
4F\ 4FF\	2aa-\ 2ff\ 2a-\	2a-\	.
4En\ 4EEn\	.	.	.
4E-X\ 4EE-X\	4bb-\ 4gg\ 4b-\	4b-\	.
=46	=46	=46	=46
4AA-\	2ccc\ 2aa-\ 2cc\	2cc\	.
4AAA-\	.	.	.
4r	8aa-\L 8ff\ 8a-\	8a-\L	.
.	8aa-\J 8ff\ 8a-\	8a-\J	.
=47	=47	=47	=47
4F\ 4FF\	2aa-\ 2ff\ 2a-\	2a-\	.
4En\ 4EEn\	.	.	.
4E-X\ 4EE-X\	4bb-\ 4gg\ 4b-\	4b-\	.
=48	=48	=48	=48
4AA-\	2ccc\ 2aa-\ 2cc\	2cc\	.
4AAA-\	.	.	.
4r	8ff\L 8dd-X\ 8f\	8f\L	.
.	8ff\J 8dd-\ 8f\	8f\J	.
=49	=49	=49	=49
4D-\ 4DD-\	2ff\ 2dd-\ 2f\	2f\	.
4C\ 4CC\	.	.	.
4BB-\ 4BBB-\	4gg\ 4een\ 4g\	4g\	.
=50	=50	=50	=50
4AA-\ 4AAA-\	2aa-\ 2ff\ 2a-\	2a-\	.
4FF\	.	.	.
4DD-\	8bb-\L 8ff\ 8b-\	8b-\L	.
.	8bbn\J 8bn\	8bn\J	.
=51	=51	=51	=51
4CC\	4ccc\ 4aa-\ 4ff\ 4cc\	4cc\	.
4CCC\	4aa-\ 4ff\ 4cc\ 4a-\	4aa-\	.
4CC\	4gg\ 4een\ 4cc\ 4g\	4gg\	.
=52	=52	=52	=52
4FF\	4ff\ 4cc\ 4a-\ 4f\	4ff\	.
!	!	!LO:TX:b:t=Fine.	!
4FFF\	4r	4r	.
!LO:LB:g=original	!LO:LB:g=original	!LO:LB:g=original	!
=:|!	=:|!	=:|!	=:|!
!	!LO:TX:a:t=Trio	!LO:TX:a:t=Trio	!
!LO:TX:t=P:problem:brak otwarcia repetycji	!LO:TX:t=P:problem:brak otwarcia repetycji	!LO:N:vis=8	!
4ryy	4cc\	(4ff\	.
=53!|:	=53!|:	=53!|:	=53!|:
*>C	*>C	*>C	*
*k[b-e-a-d-g-]	*k[b-e-a-d-g-]	*k[b-e-a-d-g-]	*
4DD-\	8dd-\L	8ff\L|	.
.	8ee-\	8ggn\J|	.
8d-\L 8F\	8dd-\	8ff\L)|	.
8d-\J 8F\	8a-\	8ee-\J|	.
!	!	!	!LO:DY:t=pianissimo
4d-\ 4A-\	8f\	8dd-\L|	pp
.	8a-\J	8ee-\J|	.
=54	=54	=54	=54
*rep	*	*	*
4DD-\	8dd-\L	8ff\L	.
.	8ee-\	8gg-\J	.
8d-\L 8F\	8dd-\	8ff\L	.
8d-\J 8F\	8a-\	8ee-\J	.
4d-\ 4A-\	8f\	8dd-\L	.
.	8a-\J	8ee-\J	.
*Xrep	*	*	*
=55	=55	=55	=55
4DD-\	8f\L	8dd-\L	.
.	8a-\	8ee-\J	.
8A-\L 8D-\	8f\	8dd-\L	.
8A-\J 8D-\	8d-\	8a-\J	.
4A-\ 4F\	8f\	8dd-\L	.
.	8d-\J	8a-\J	.
=56	=56	=56	=56
4d-\ 4A-\	8f\L	8dd-\L	.
.	8a-\	8ee-\J	.
4f\ 4d-\	8a-\	8ee-\L	.
.	8dd-\	8ff\J	.
4a-\ 4f\	8dd-\	8ff\L	.
.	8een\J	8ggn\J	.
=57	=57	=57	=57
4FF\	8ff\L	8aa-\L	.
.	8ggn\	8bb-\J	.
8f\L 8A-\	8ff\	8aa-\L	.
8f\J 8A-\	8cc\	8ggn\J	.
4f\ 4c\	8a-\	8ff\L	.
.	8cc\J	8gg\J	.
=58	=58	=58	=58
*rep	*	*	*
4FF\	8ff\L	8aa-\L	.
.	8ggn\	8bb-\J	.
8f\L 8A-\	8ff\	8aa-\L	.
8f\J 8A-\	8cc\	8ggn\J	.
4f\ 4c\	8a-\	8ff\L	.
.	8cc\J	8gg\J	.
*Xrep	*	*	*
=59	=59	=59	=59
4FF\	8a-\L	8ff\L	.
.	8cc\	8ggn\J	.
8c\L 8F\	8a-\	8ff\L	.
8c\J 8F\	8f\	8cc\J	.
4c\ 4A-\	8a-\	8ff\L	.
.	8f\J	8cc\J	.
*clefG2	*	*	*
!	!	!LO:LB:g=original	!
=60	=60	=60	=60
!LO:TX:t=I.	!	!	!
*>C1	*>C1	*>C1	*
4f\ 4c\	8a-\L	8ff\L	.
.	8cc\	8ggn\J	.
4a-\ 4f\	8cc\	8gg\L	.
.	8ff\	8aa-\J	.
4a-\ 4g-X\	8ff\	8aa-\L	.
.	8ee-\J	8gg-X\J	.
=61:|!	=61:|!	=61:|!	=61:|!
!LO:TX:t=II	!	!	!
*>C2	*>C2	*>C2	*
4f\ 4c\	8a-\L	8ff\L	.
.	8cc\	8ggn\J	.
4a-\ 4f\	8cc\	8gg\L	.
.	8ff\	8aa-\J	.
4cc\ 4a-\	8ff\	8aa-\L	.
.	8ggn\J	8bb-\J	.
=62	=62	=62	=62
*>D	*>D	*>D	*
4A-\	8aa-\L	8ccc\L	.
.	8bb-\	8ddd-\J	.
8a-\L 8c\	8aa-\	8ccc\L	.
8a-\J 8c\	8ee-\	8bb-\J	.
4a-\ 4e-\	8cc\	8aa-\L	.
.	8ee-\J	8bb-\J	.
=63	=63	=63	=63
*rep	*	*	*
4A-\	8aa-\L	8ccc\L	.
.	8bb-\	8ddd-\J	.
8a-\L 8c\	8aa-\	8ccc\L	.
8a-\J 8c\	8ee-\	8bb-\J	.
4a-\ 4e-\	8cc\	8aa-\L	.
.	8ee-\J	8bb-\J	.
*Xrep	*	*	*
!LO:PB:g=original	!LO:PB:g=original	!	!
=64	=64	=64	=64
4A-\	4aa-\	4ccc\	.
8A-\L	8e-\L	4r	.
8c\J	8a-\J	.	.
8c\L	8a-\L	4r	.
8e-\J	8b-\J	.	.
=65	=65	=65	=65
8e-\L	8b-\L	2r	.
8a-\J	8cc\J	.	.
8a-\L	8cc\L	.	.
8b-\J	8ee-\J	.	.
8b-\L	8ee-\L	4r	.
8cc\J	8aa-\J	.	.
=66	=66	=66	=66
4A-\	8aa-\L	8ccc\L	.
.	8bb-\	8ddd-\J	.
8a-\L 8c\	8aa-\	8ccc\L	.
8a-\J 8c\	8ee-\	8bb-\J	.
4a-\ 4e-\	8cc\	8aa-\L	.
.	8ee-\J	8bb-\J	.
=67	=67	=67	=67
*rep	*	*	*
4A-\	8aa-\L	8ccc\L	.
.	8bb-\	8ddd-\J	.
8a-\L 8c\	8aa-\	8ccc\L	.
8a-\J 8c\	8ee-\	8bb-\J	.
4a-\ 4e-\	8cc\	8aa-\L	.
.	8ee-\J	8bb-\J	.
*Xrep	*	*	*
!	!	!LO:LB:g=original	!
=68	=68	=68	=68
4A-\	4aa-\	4ccc\	.
8A-\L	8e-\L	4r	.
8c\J	8a-\J	.	.
8c\L	8a-\L	4r	.
8e-\J 8c\	8b-\J	.	.
=69	=69	=69	=69
8e-\L	8b-\L	2r	.
8a-\J	8cc\J	.	.
8a-\L	8cc\L	.	.
8b-\J	8ee-\J	.	.
8b-\L	8ee-\L	4r	.
8cc\J	8aa-\J	.	.
=70	=70	=70	=70
4A-\	8ccc\L	8eee-\L	ppp
.	8ddd-\	8fff\J	.
8cc\L 8e-\	8ccc\	8eee-\L	.
8cc\J 8e-\	8aa-\	8ccc\J	.
4cc\ 4a-\	8ee-\	8aa-\L	.
.	8aa-\J	8ccc\J	.
=71	=71	=71	=71
8a-\L	4ccc\	4eee-\	.
8b-\J	.	.	.
8b-\L	8ee-\L	4r	.
8cc\J	8aa-\J	.	.
8cc\L	8aa-\L	4r	.
8ee-\J	8bb-\J	.	.
=72	=72	=72	=72
4A-\	8ccc\L	8eee-\L	ppp
.	8ddd-\	8fff\J	.
8cc\L 8e-\	8ccc\	8eee-\L	.
8cc\J 8e-\	8aa-\	8ccc\J	.
4cc\ 4a-\	8ee-\	8aa-\L	.
.	8aa-\J	8ccc\J	.
=73	=73	=73	=73
8a-\L	4ccc\	4eee-\	.
8b-\J	.	.	.
8b-\L	8ee-\L	4r	.
8cc\J	8aa-\J	.	.
8cc\L	8aa-\L	4r	.
8ee-\J	8bb-\J	.	.
=74	=74	=74	=74
4A-\	8ccc\L	8eee-\L	.
.	8ddd-\	8fff\J	.
4cc\ 4e-\	8ccc\	8eee-\L	ppp
.	8aa-\	8ccc\J	.
4cc\ 4a-\	8ee-\	8aa-\L	.
.	8aa-\J	8ccc\J	.
!LO:LB:g=original	!LO:LB:g=original	!	!
=75	=75	=75	=75
4A-\	8ccc\L	8eee-\L	.
.	8ddd-\	8fff\J	.
4cc\ 4e-\	8ccc\	8eee-\L	.
.	8aa-\	8ccc\J	.
4cc\ 4a-\	8ee-\	8aa-\L	.
.	8aa-\J	8ccc\J	.
=76	=76	=76	=76
4A-\	8aa-\L	(8ccc\L	.
.	8ee-\J	8bb-\J)	.
4r	8ee-\L	(8bb-\L	.
.	8cc\J	8aa-\J)	.
4r	8cc\L	(8aa-\L	.
.	8b-\J	8ee-\J)	.
!	!	!LO:LB:g=original	!
=77	=77	=77	=77
2r	8b-\L	(8ee-\L	.
.	8a-\J	8cc\J)	.
.	8a-\L	(8cc\L	.
.	8e-\J	8b-\J)	.
4r	8e-\L	(8a-\L	.
.	8A-\J	8e-\J)	.
*clefF4	*	*	*
=78	=78	=78	=78
!	!	!	!LO:DY:t=pp.
4DD-\	8d-\L	8f\L|	pp
.	8e-\	8g-\J|	.
8F\L	8d-\	8f\L|	.
8F\J	8A-\	8e-\J|	.
4A-\	8F\	8d-\L|	.
.	8A-\J	8e-\J|	.
=79	=79	=79	=79
4DD-\	8d-\L	8f\L	.
.	8e-\	8g-\J	.
8F\L	8d-\	8f\L	.
8F\J	8A-\	8e-\J	.
4A-\	8F\	8d-\L	.
.	8A-\J	8e-\J	.
=80	=80	=80	=80
4DD-\	4d-\	4f\	.
4F\	4r	4r	.
4r	8A-</L	4ryy	.
.	8A-</J	.	.
=81	=81	=81	=81
4F\	4A-</	2r	.
4En\	4B-</ 4Gn</	.	.
4AA-\	4c</ 4G-X</	4r	.
=82	=82	=82	=82
4DD-\	8d-\L	8f\L	.
.	8e-\	8g-\J	.
!	!	!	!LO:DY:t=pp.
8F\L	8d-\	8f\L	pp
8F\J	8A-\	8e-\J	.
4A-\	8F\	8d-\L	.
.	8A-\J	8e-\J	.
=83	=83	=83	=83
*rep	*	*	*
4DD-\	8d-\L	8f\L	.
.	8e-\	8g-\J	.
8F\L	8d-\	8f\L	.
8F\J	8A-\	8e-\J	.
4A-\	8F\	8d-\L	.
.	8A-\J	8e-\J	.
*Xrep	*	*	*
=84	=84	=84	=84
4DD-\	4d-\	4f\	.
4F\	4r	4r	.
8A-\L	8c\L	4r	.
8A-\J	8c\J	.	.
=85	=85	=85	=85
4A-\	4c\	2r	.
!LO:SIC:v:s=4Gn	!	!	!
4G-\	4dn\ 4Bn\	.	.
4C\	4en\ 4B-X\	4r	.
!	!	!LO:LB:g=original	!
=86	=86	=86	=86
4FF\	8f\L	8a-\L	.
.	8gn\	8b-\J	.
8F\L	8f\	8a-\L	.
8F\J	8c\	8gn\J	.
4A-\	8A-\	8f\L	.
.	8c\J	8g\J	.
!LO:LB:g=original	!LO:LB:g=original	!	!
=87	=87	=87	=87
4A-\	4c\	4a-\	.
!LO:SIC:v:s=4Gn	!	!	!
4G-\	4dn\ 4Bn\	4r	.
4C\	4en\ 4B-X\	4r	.
=88	=88	=88	=88
4FF\	4f\	8a-^^\L	.
.	.	8b-\J	.
4A-\	4r	8a-\L	.
.	.	8gn\J	.
4r	8c\L	8f\L	.
.	8c\J	8g\J	.
=89	=89	=89	=89
4A-\	4c\	4a-\	.
!LO:SIC:v:s=4Gn	!	!	!
4G-\	4dn\ 4Bn\	2r	.
4C\	4en\ 4B-X\	.	.
=90	=90	=90	=90
4FF\	4f\ 4A-\	8a-^^\L	.
.	.	8b-\J	.
4A-\	4r	8a-\L	.
.	.	8gn\J	.
4r	8a-\L 8A-\	8f\L	.
.	8a-\J 8A-\	8g\J	.
=91	=91	=91	=91
4FF\	4a-\ 4A-\	8a-^^\L	.
.	.	8b-\J	.
4A-\	4r	8a-\L	.
.	.	8gn\J	.
4r	8a-\L	8f\L	.
.	8a-\J	8g\J	.
=92	=92	=92	=92
4FF\	4a-\ 4A-\	8a-\L	.
.	.	8a-\J	fff
4A-\	4r	8a-\L	.
.	.	8a-\J	.
4r	8a-\L	8a-\L	.
.	8a-\J	8a-\J	.
=93	=93	=93	=93
2r	8a-\L	2r	.
.	8a-\	.	.
.	8a-\	.	.
.	8a-\	.	.
!	!	!LO:TX:b:t=Da Capo..	!
4r	8a-\	4r	.
!	!LO:TX:b:t=Da Capo.	!	!
.	8a-\J	.	.
==	==	==	==
*-	*-	*-	*-
!!!system-decoration: (s1){(s2,s3)}
!!!RDF**kern: | = vertical stroke
!!!RDF**kern: > = above
!!!RDF**kern: < = below
!!!EED: Andrzej Borzym
!!!EST: 2021-05-19
!!!ENC:Anastazja Marusiak
!!!END:2021-04-06
